X:420
T:Stoney Creek
C:
N:Transcribed by Larry Tanner
R:bluegrass
L:1/8
Q:1/4=260
M:4/4
K:A
z8 | "A"a2 e2 "G"=g2 d2 | "A"ef ed cB A2 | "A"a2 e2 "D"=g2 d2 | "E"e2 ac' ba e2 | 
"A"a2 e2 "G"=g2 d2 | "A"ef ed cB A2 | B/=c3/2 AA F2 E2 | "A"zB =c2 "E"A4 | "A"ae ae "G"=ge ge | 
"A"ef ed cB A2 | "A"ae ae "G"=ge ge | "E"e2 ac' ba e2 | "A"ae ae "G"=ge ge | "A"ef ed cB A2 | 
"A"B/=c3/2 AA F2 E2 | "A"zB =c2 "E"A4 | "F"[=c2=F2] [cF][cF] [cF][cF] [cF][cF] | 
"Dm"[d2=F2] [dF][dF] [dF][dF] [dF][dF] | "F"=c2 cd cA =GD | "Dm"=F2 D6 | "F"=FE F=G AG A^A | 
"C"=cd c^A =A=G =FD | "F"=F2 FF E2 EE | D2 DD =C4 | [=c2=F2] [cF][cF] [cF][cF] [cF][cF] | 
"Dm"[d2=F2] [dF][dF] [dF][dF] [dF][dF] | "F"=c2 cd cA =GD | "Dm"=F2 D6 | "F"=FE F=G AG A^A | 
"Dm"=cd c^A =A=G =FD | "F"=F2 F=G AG F2 | "E"E2 E=F =GF E2 | 


